X: 41831
T: Ville De Quebec
R: mazurka
M: 3/4
K: Gmajor
GA|B2 G2 E2|D4 GA|BAGABc|d4 gf|e2 egfe|d2 B2 d2|ed c2 B2|A4 GA|
B2 G2 E2|D4 GA|BAGABc|d4 gf|e2 egfe|d2 B2 d2|c2 B2 A2|G4||
GA|B2 G2 e2|d4 GA|BA G2 c2|B4 gf|e2 egfe|d2 B2 d2|ed c2 B2|A4 GA|
B2 G2 E2|D4 GA|BAGABc|d4 gf|e2 egfe|d2 B2 d2|c2 B2 A2|G4||

